flaticon/programming-line/html-document.svg

<svg xmlns="http://www.w3.org/2000/svg" width="32" height="32" viewBox="0 0 24 24">
    <path d="M 23.433594 4.824219 C 23.433594 4.816406 23.433594 4.808594 23.429688 4.800781 C 23.429688 4.796875 23.429688 4.792969 23.429688 4.792969 C 23.425781 4.78125 23.425781 4.773438 23.421875 4.761719 C 23.421875 4.761719 23.421875 4.757812 23.421875 4.757812 C 23.417969 4.75 23.414062 4.738281 23.410156 4.730469 C 23.410156 4.730469 23.410156 4.726562 23.410156 4.726562 C 23.40625 4.71875 23.402344 4.707031 23.398438 4.699219 C 23.394531 4.699219 23.394531 4.695312 23.394531 4.695312 C 23.390625 4.6875 23.386719 4.679688 23.382812 4.671875 C 23.378906 4.667969 23.378906 4.667969 23.375 4.664062 C 23.371094 4.65625 23.367188 4.652344 23.363281 4.644531 C 23.359375 4.640625 23.359375 4.640625 23.355469 4.636719 C 23.347656 4.628906 23.339844 4.621094 23.332031 4.613281 L 18.824219 0.101562 C 18.816406 0.09375 18.808594 0.0859375 18.800781 0.0820312 C 18.796875 0.078125 18.792969 0.078125 18.792969 0.0742188 C 18.785156 0.0703125 18.777344 0.0625 18.769531 0.0585938 C 18.769531 0.0585938 18.765625 0.0585938 18.765625 0.0546875 C 18.757812 0.0507812 18.75 0.046875 18.742188 0.0429688 C 18.738281 0.0390625 18.738281 0.0390625 18.734375 0.0390625 C 18.726562 0.0351562 18.71875 0.03125 18.710938 0.0273438 C 18.710938 0.0273438 18.707031 0.0273438 18.707031 0.0273438 C 18.695312 0.0234375 18.6875 0.0195312 18.679688 0.015625 C 18.675781 0.015625 18.675781 0.015625 18.671875 0.015625 C 18.664062 0.0117188 18.65625 0.0078125 18.644531 0.0078125 C 18.640625 0.0078125 18.636719 0.0078125 18.636719 0.00390625 C 18.628906 0.00390625 18.617188 0.00390625 18.609375 0 C 18.597656 0 18.585938 0 18.574219 0 L 8.054688 0 C 7.03125 0 6.199219 0.832031 6.199219 1.855469 L 6.199219 3.757812 L 2.042969 3.757812 C 1.226562 3.757812 0.5625 4.421875 0.5625 5.238281 L 0.5625 8.992188 C 0.5625 9.808594 1.226562 10.472656 2.042969 10.472656 L 6.199219 10.472656 L 6.199219 22.144531 C 6.199219 23.167969 7.03125 24 8.054688 24 L 21.582031 24 C 22.605469 24 23.4375 23.167969 23.4375 22.144531 L 23.4375 4.859375 C 23.4375 4.847656 23.4375 4.835938 23.433594 4.824219 Z M 18.925781 1.203125 L 22.234375 4.507812 L 20.078125 4.507812 C 19.445312 4.507812 18.925781 3.992188 18.925781 3.359375 Z M 1.269531 8.992188 L 1.269531 5.238281 C 1.269531 4.808594 1.617188 4.460938 2.042969 4.460938 L 16.320312 4.460938 C 16.75 4.460938 17.097656 4.808594 17.097656 5.238281 L 17.097656 8.992188 C 17.097656 9.421875 16.75 9.769531 16.320312 9.769531 L 6.554688 9.769531 C 6.550781 9.769531 6.550781 9.769531 6.550781 9.769531 L 2.042969 9.769531 C 1.617188 9.769531 1.269531 9.421875 1.269531 8.992188 Z M 21.582031 23.296875 L 8.054688 23.296875 C 7.421875 23.296875 6.902344 22.777344 6.902344 22.144531 L 6.902344 10.472656 L 16.320312 10.472656 C 17.136719 10.472656 17.800781 9.808594 17.800781 8.992188 L 17.800781 5.238281 C 17.800781 4.421875 17.136719 3.757812 16.320312 3.757812 L 6.902344 3.757812 L 6.902344 1.855469 C 6.902344 1.222656 7.421875 0.703125 8.054688 0.703125 L 18.222656 0.703125 L 18.222656 3.359375 C 18.222656 4.382812 19.054688 5.214844 20.078125 5.214844 L 22.730469 5.214844 L 22.730469 22.144531 C 22.730469 22.777344 22.214844 23.296875 21.582031 23.296875 Z M 21.582031 23.296875"/>
    <path d="M5.425781 5.261719C5.230469 5.261719 5.074219 5.417969 5.074219 5.613281L5.074219 7.140625 3.148438 7.140625 3.148438 5.613281C3.148438 5.417969 2.988281 5.261719 2.792969 5.261719 2.601562 5.261719 2.441406 5.417969 2.441406 5.613281L2.441406 8.617188C2.441406 8.8125 2.601562 8.96875 2.792969 8.96875 2.988281 8.96875 3.148438 8.8125 3.148438 8.617188L3.148438 7.84375 5.074219 7.84375 5.074219 8.617188C5.074219 8.8125 5.230469 8.96875 5.425781 8.96875 5.621094 8.96875 5.777344 8.8125 5.777344 8.617188L5.777344 5.613281C5.777344 5.417969 5.621094 5.261719 5.425781 5.261719zM9.933594 8.96875C10.128906 8.96875 10.285156 8.8125 10.285156 8.617188L10.285156 6.882812 10.757812 7.671875C10.820312 7.777344 10.9375 7.84375 11.0625 7.84375L11.4375 7.84375C11.558594 7.84375 11.675781 7.777344 11.738281 7.671875L12.210938 6.882812 12.210938 8.617188C12.210938 8.8125 12.367188 8.96875 12.5625 8.96875 12.757812 8.96875 12.914062 8.8125 12.914062 8.617188L12.914062 5.613281C12.914062 5.453125 12.808594 5.316406 12.65625 5.273438 12.503906 5.230469 12.34375 5.296875 12.261719 5.429688L11.25 7.121094 10.234375 5.429688C10.152344 5.296875 9.992188 5.230469 9.839844 5.273438 9.6875 5.316406 9.582031 5.453125 9.582031 5.613281L9.582031 8.617188C9.582031 8.8125 9.738281 8.96875 9.933594 8.96875zM6.550781 5.964844L7.328125 5.964844 7.328125 8.617188C7.328125 8.8125 7.484375 8.96875 7.679688 8.96875 7.875 8.96875 8.03125 8.8125 8.03125 8.617188L8.03125 5.964844 8.804688 5.964844C9 5.964844 9.160156 5.808594 9.160156 5.613281 9.160156 5.417969 9 5.261719 8.804688 5.261719L6.550781 5.261719C6.355469 5.261719 6.199219 5.417969 6.199219 5.613281 6.199219 5.808594 6.355469 5.964844 6.550781 5.964844zM14.066406 8.96875L15.945312 8.96875C16.140625 8.96875 16.296875 8.8125 16.296875 8.617188 16.296875 8.425781 16.140625 8.265625 15.945312 8.265625L14.417969 8.265625 14.417969 5.613281C14.417969 5.417969 14.261719 5.261719 14.066406 5.261719 13.871094 5.261719 13.714844 5.417969 13.714844 5.613281L13.714844 8.617188C13.714844 8.8125 13.871094 8.96875 14.066406 8.96875zM16.054688 13.167969C15.871094 13.105469 15.671875 13.207031 15.609375 13.390625L13.355469 20.15625C13.296875 20.339844 13.394531 20.539062 13.578125 20.601562 13.617188 20.613281 13.652344 20.617188 13.691406 20.617188 13.839844 20.617188 13.976562 20.523438 14.023438 20.378906L16.28125 13.613281C16.339844 13.429688 16.242188 13.230469 16.054688 13.167969zM12.8125 14.003906C12.675781 13.867188 12.453125 13.867188 12.316406 14.003906L9.683594 16.636719C9.546875 16.773438 9.546875 16.996094 9.683594 17.132812L12.316406 19.765625C12.382812 19.832031 12.472656 19.867188 12.5625 19.867188 12.652344 19.867188 12.742188 19.832031 12.8125 19.765625 12.949219 19.625 12.949219 19.402344 12.8125 19.265625L10.429688 16.882812 12.8125 14.503906C12.949219 14.367188 12.949219 14.144531 12.8125 14.003906zM17.320312 14.003906C17.183594 13.867188 16.960938 13.867188 16.824219 14.003906 16.6875 14.144531 16.6875 14.367188 16.824219 14.503906L19.203125 16.882812 16.824219 19.265625C16.6875 19.402344 16.6875 19.625 16.824219 19.765625 16.890625 19.832031 16.980469 19.867188 17.074219 19.867188 17.164062 19.867188 17.253906 19.832031 17.320312 19.765625L19.953125 17.132812C20.089844 16.996094 20.089844 16.773438 19.953125 16.636719zM17.320312 14.003906"/>
</svg>

<svg xmlns="http://www.w3.org/2000/svg" width="32" height="32" viewBox="0 0 24 24">
    <path d="M23.434 4.824c0-.008 0-.015-.004-.023v-.008c-.004-.012-.004-.02-.008-.031v-.004l-.012-.028v-.003l-.012-.028c-.003 0-.003-.004-.003-.004l-.012-.023-.008-.008-.012-.02-.008-.007-.023-.024L18.824.102c-.008-.008-.015-.016-.023-.02-.004-.004-.008-.004-.008-.008-.008-.004-.016-.011-.023-.015 0 0-.004 0-.004-.004l-.024-.012c-.004-.004-.004-.004-.008-.004l-.023-.012h-.004c-.012-.004-.02-.007-.027-.011h-.008c-.008-.004-.016-.008-.027-.008-.004 0-.008 0-.008-.004-.008 0-.02 0-.028-.004H8.054A1.857 1.857 0 0 0 6.2 1.855v1.903H2.043c-.816 0-1.48.664-1.48 1.48v3.754c0 .817.664 1.48 1.48 1.48h4.156v11.673C6.2 23.168 7.031 24 8.055 24h13.527a1.857 1.857 0 0 0 1.855-1.855V4.859c0-.011 0-.023-.003-.035zm-4.508-3.62l3.308 3.304h-2.156a1.154 1.154 0 0 1-1.152-1.149zM1.27 8.991V5.238c0-.43.347-.777.773-.777H16.32c.43 0 .778.348.778.777v3.754c0 .43-.348.778-.778.778H2.043a.776.776 0 0 1-.773-.778zm20.312 14.305H8.055c-.633 0-1.153-.52-1.153-1.152V10.473h9.418c.817 0 1.48-.664 1.48-1.48V5.237c0-.816-.663-1.48-1.48-1.48H6.902V1.855c0-.632.52-1.152 1.153-1.152h10.168V3.36c0 1.024.832 1.856 1.855 1.856h2.652v16.93c0 .632-.515 1.152-1.148 1.152zm0 0"/>
    <path d="M5.426 5.262a.35.35 0 0 0-.352.351v1.528H3.148V5.613a.353.353 0 0 0-.707 0v3.004a.353.353 0 1 0 .707 0v-.773h1.926v.773a.35.35 0 0 0 .352.352.35.35 0 0 0 .351-.352V5.613a.35.35 0 0 0-.351-.351zm0 0M9.934 8.969a.35.35 0 0 0 .351-.352V6.883l.473.789c.062.105.18.172.305.172h.374a.354.354 0 0 0 .301-.172l.473-.79v1.735a.35.35 0 0 0 .351.352.35.35 0 0 0 .352-.352V5.613a.352.352 0 0 0-.652-.183L11.25 7.12 10.234 5.43a.353.353 0 0 0-.652.183v3.004a.35.35 0 0 0 .352.352zm0 0M6.55 5.965h.778v2.652a.35.35 0 0 0 .352.352.35.35 0 0 0 .351-.352V5.965h.774a.353.353 0 0 0 .355-.352.353.353 0 0 0-.355-.351H6.55a.35.35 0 0 0-.352.351.35.35 0 0 0 .352.352zm0 0M14.066 8.969h1.88a.35.35 0 0 0 .35-.352.353.353 0 0 0-.35-.351h-1.528V5.613a.35.35 0 0 0-.352-.351.35.35 0 0 0-.351.351v3.004a.35.35 0 0 0 .351.352zm0 0M16.055 13.168a.353.353 0 0 0-.446.223l-2.254 6.765a.356.356 0 0 0 .223.446c.04.011.074.015.113.015a.348.348 0 0 0 .332-.238l2.258-6.766a.355.355 0 0 0-.226-.445zm0 0M12.813 14.004a.351.351 0 0 0-.497 0l-2.632 2.633a.351.351 0 0 0 0 .496l2.632 2.633a.35.35 0 0 0 .246.101c.09 0 .18-.035.25-.101a.356.356 0 0 0 0-.5l-2.382-2.383 2.383-2.38a.356.356 0 0 0 0-.5zm0 0M17.32 14.004a.351.351 0 0 0-.496 0 .356.356 0 0 0 0 .5l2.38 2.379-2.38 2.383a.356.356 0 0 0 0 .5.351.351 0 0 0 .496 0l2.633-2.633a.351.351 0 0 0 0-.496zm0 0"/>
</svg>
